X: 16522
T: Half Day Road
R: reel
M: 4/4
K: Adorian
|:E2 FG AGFD|E3 E DCB,G,|DGGG ADGD|EAAA BAGD|
E2 FG AGFD|E3 E DCB,G,|DGGG ADGD|EAEC B,A,A,G,:|
|:e3 d ^cABc|defa g3 g-|g2 gf deed|1 ^cAGB ABcd:|2 ^cAGB AGEG||
|:EAAA BADE|G2 GG AGGE|
EGGG AGEG|1 B,A,A,G, B,A,DE:|2 B,A,A,G, B,A,A,G,||

